; generated by Slic3r 1.3.0 on 2020-04-06 at 14:28:45

; external perimeters extrusion width = 0.44mm (5.92mm^3/s)
; perimeters extrusion width = 0.48mm (9.42mm^3/s)
; infill extrusion width = 0.48mm (12.57mm^3/s)
; solid infill extrusion width = 0.48mm (12.57mm^3/s)
; top infill extrusion width = 0.48mm (12.57mm^3/s)

M190 S70 ; set bed temperature and wait for it to be reached
M104 S210 ; set temperature
; 8" i3 & i3v 3mm PLA for .40mm Hexagon 4-5-14
G1 Z5 F50 ; lift nozzle
G28 ; home all axes
; Filament gcode

M109 S210 ; set temperature and wait for it to be reached
G21 ; set units to millimeters
G90 ; use absolute coordinates
M82 ; use absolute distances for extrusion
G92 E0
M106 S89.25
G1 E-1.00000 F1800.00000
G92 E0
G1 Z0.350 F6000.000
G1 X41.095 Y61.176 F6000.000
G1 E1.00000 F1800.00000
G1 F900
G1 X42.815 Y60.009 E1.06432
G1 X44.501 Y58.914 E1.12653
G1 X46.327 Y57.780 E1.19304
G1 X48.177 Y56.684 E1.25955
G1 X50.048 Y55.628 E1.32604
G1 X51.942 Y54.611 E1.39255
G1 X53.980 Y53.572 E1.46334
G1 X55.916 Y52.638 E1.52984
G1 X57.871 Y51.745 E1.59635
G1 X59.844 Y50.892 E1.66286
G1 X61.732 Y50.122 E1.72594
G1 X95.822 Y36.381 E2.86320
G1 X98.299 Y35.900 E2.94126
G1 X100.799 Y35.900 E3.01862
G1 X103.276 Y36.381 E3.09668
G1 X139.253 Y50.892 E4.29702
G1 X141.227 Y51.745 E4.36353
G1 X143.182 Y52.638 E4.43004
G1 X145.241 Y53.634 E4.50083
G1 X147.156 Y54.611 E4.56733
G1 X149.110 Y55.662 E4.63600
G1 X150.921 Y56.684 E4.70032
G1 X152.652 Y57.708 E4.76254
G1 X154.479 Y58.839 E4.82905
G1 X156.283 Y60.009 E4.89556
G1 X158.175 Y61.295 E4.96635
G1 X159.926 Y62.541 E5.03284
G1 X161.651 Y63.823 E5.09935
G1 X163.348 Y65.142 E5.16586
G1 X165.018 Y66.496 E5.23236
G1 X166.658 Y67.884 E5.29887
G1 X168.219 Y69.261 E5.36326
G1 X198.089 Y96.167 E6.60714
G1 X199.633 Y98.233 E6.68694
G1 X199.997 Y98.995 E6.71308
G1 X200.635 Y102.209 E6.81444
G1 X200.185 Y110.545 E7.07275
G1 X200.119 Y111.183 E7.09262
G1 X193.226 Y156.521 E8.51154
G1 X192.646 Y158.399 E8.57238
G1 X191.893 Y159.963 E8.62608
G1 X190.555 Y161.826 E8.69704
G1 X188.662 Y163.121 E8.76800
G1 X187.398 Y163.548 E8.80928
G1 X185.706 Y163.934 E8.86298
G1 X184.232 Y164.100 E8.90889
G1 X13.976 Y164.100 E14.17682
G1 X11.717 Y163.703 E14.24779
G1 X9.845 Y162.655 E14.31416
G1 X8.488 Y161.572 E14.36787
G1 X6.970 Y159.854 E14.43883
G1 X6.160 Y157.867 E14.50520
G1 X5.962 Y156.999 E14.53274
G1 X5.855 Y156.403 E14.55148
G1 X-0.392 Y109.712 E16.00903
G1 X-0.447 Y109.030 E16.03020
G1 X-0.641 Y102.479 E16.23300
G1 X0.003 Y99.426 E16.32954
G1 X0.367 Y98.664 E16.35568
G1 X1.795 Y96.705 E16.43067
G1 X29.348 Y70.667 E17.60366
G1 X30.931 Y69.214 E17.67016
G1 X32.544 Y67.794 E17.73666
G1 X34.080 Y66.496 E17.79887
G1 X35.749 Y65.142 E17.86537
G1 X37.447 Y63.823 E17.93188
G1 X39.172 Y62.541 E17.99838
G1 X41.045 Y61.210 E18.06950
G1 E17.06950 F1800.00000
G92 E0
G1 X45.702 Y68.050 F6000.000
G1 E1.00000 F1800.00000
G1 F945
G1 X47.336 Y66.939 E1.06114
G1 X48.994 Y65.863 E1.12228
G1 X50.673 Y64.821 E1.18342
G1 X52.374 Y63.816 E1.24456
G1 X54.095 Y62.846 E1.30571
G1 X55.837 Y61.912 E1.36685
G1 X57.598 Y61.015 E1.42799
G1 X59.377 Y60.155 E1.48913
G1 X61.173 Y59.332 E1.55027
G1 X62.987 Y58.547 E1.61141
G1 X64.816 Y57.801 E1.67255
G1 X66.661 Y57.092 E1.73369
G1 X68.520 Y56.423 E1.79483
G1 X70.393 Y55.793 E1.85597
G1 X72.279 Y55.202 E1.91711
G1 X74.176 Y54.651 E1.97825
G1 X76.085 Y54.139 E2.03939
G1 X78.004 Y53.668 E2.10054
G1 X79.932 Y53.237 E2.16168
G1 X81.869 Y52.846 E2.22282
G1 X83.814 Y52.496 E2.28396
G1 X85.766 Y52.187 E2.34510
G1 X87.724 Y51.919 E2.40624
G1 X89.687 Y51.692 E2.46738
G1 X91.654 Y51.506 E2.52852
G1 X93.625 Y51.361 E2.58966
G1 X95.598 Y51.258 E2.65080
G1 X97.573 Y51.196 E2.71194
G1 X99.480 Y51.176 E2.77095
G1 X101.525 Y51.196 E2.83422
G1 X103.500 Y51.258 E2.89537
G1 X105.473 Y51.361 E2.95651
G1 X107.444 Y51.506 E3.01765
G1 X109.411 Y51.692 E3.07879
G1 X111.374 Y51.919 E3.13993
G1 X113.332 Y52.187 E3.20107
G1 X115.284 Y52.496 E3.26221
G1 X117.228 Y52.846 E3.32335
G1 X119.165 Y53.237 E3.38449
G1 X121.094 Y53.668 E3.44563
G1 X123.013 Y54.139 E3.50678
G1 X124.921 Y54.651 E3.56792
G1 X126.819 Y55.202 E3.62906
G1 X128.705 Y55.793 E3.69020
G1 X130.577 Y56.423 E3.75134
G1 X132.437 Y57.092 E3.81248
G1 X134.281 Y57.801 E3.87362
G1 X136.111 Y58.547 E3.93476
G1 X137.924 Y59.332 E3.99590
G1 X139.721 Y60.155 E4.05704
G1 X141.500 Y61.015 E4.11818
G1 X143.261 Y61.912 E4.17932
G1 X144.941 Y62.813 E4.23833
G1 X146.724 Y63.815 E4.30160
G1 X148.425 Y64.821 E4.36275
G1 X150.104 Y65.863 E4.42389
G1 X151.761 Y66.939 E4.48503
G1 X153.396 Y68.050 E4.54617
G1 X155.006 Y69.194 E4.60731
G1 X156.593 Y70.372 E4.66845
G1 X158.154 Y71.584 E4.72959
G1 X159.690 Y72.827 E4.79073
G1 X161.199 Y74.103 E4.85187
G1 X162.681 Y75.409 E4.91301
G1 X164.136 Y76.747 E4.97415
G1 X165.562 Y78.115 E5.03530
G1 X167.007 Y79.562 E5.09857
G1 X168.327 Y80.938 E5.15758
G1 X169.665 Y82.393 E5.21872
G1 X170.971 Y83.875 E5.27986
G1 X172.247 Y85.384 E5.34100
G1 X173.490 Y86.920 E5.40214
G1 X174.701 Y88.481 E5.46328
G1 X175.880 Y90.068 E5.52442
G1 X177.024 Y91.678 E5.58556
G1 X178.195 Y93.400 E5.64998
G1 X177.146 Y93.726 E5.68397
G1 X176.637 Y95.029 E5.72724
G1 X177.151 Y95.916 E5.75897
G1 X169.007 Y116.776 E6.45187
G1 X167.119 Y117.363 E6.51307
G1 X165.293 Y115.175 E6.60124
G1 X164.091 Y113.811 E6.65749
G1 X162.860 Y112.472 E6.71376
G1 X161.601 Y111.159 E6.77004
G1 X160.315 Y109.873 E6.82633
G1 X159.002 Y108.614 E6.88261
G1 X157.663 Y107.383 E6.93889
G1 X156.346 Y106.222 E6.99319
G1 X154.909 Y105.006 E7.05145
G1 X153.496 Y103.861 E7.10773
G1 X152.058 Y102.746 E7.16401
G1 X150.598 Y101.662 E7.22029
G1 X149.115 Y100.608 E7.27657
G1 X147.611 Y99.586 E7.33285
G1 X146.085 Y98.595 E7.38913
G1 X144.540 Y97.637 E7.44541
G1 X142.974 Y96.711 E7.50169
G1 X141.389 Y95.818 E7.55797
G1 X139.786 Y94.958 E7.61426
G1 X138.165 Y94.132 E7.67054
G1 X136.528 Y93.341 E7.72681
G1 X134.874 Y92.584 E7.78310
G1 X133.205 Y91.861 E7.83938
G1 X131.520 Y91.174 E7.89566
G1 X129.822 Y90.522 E7.95194
G1 X128.111 Y89.906 E8.00822
G1 X126.387 Y89.326 E8.06450
G1 X124.651 Y88.782 E8.12078
G1 X122.905 Y88.274 E8.17706
G1 X121.148 Y87.804 E8.23334
G1 X119.381 Y87.370 E8.28962
G1 X117.668 Y86.987 E8.34393
G1 X115.823 Y86.613 E8.40219
G1 X114.033 Y86.291 E8.45847
G1 X112.236 Y86.007 E8.51475
G1 X110.434 Y85.760 E8.57102
G1 X108.627 Y85.551 E8.62731
G1 X106.816 Y85.380 E8.68359
G1 X105.002 Y85.246 E8.73987
G1 X103.186 Y85.151 E8.79615
G1 X101.368 Y85.094 E8.85243
G1 X99.549 Y85.075 E8.90871
G1 X97.730 Y85.094 E8.96499
G1 X95.912 Y85.151 E9.02127
G1 X94.095 Y85.246 E9.07755
G1 X92.281 Y85.380 E9.13383
G1 X90.471 Y85.551 E9.19011
G1 X88.664 Y85.760 E9.24639
G1 X86.862 Y86.007 E9.30267
G1 X85.065 Y86.291 E9.35895
G1 X83.275 Y86.613 E9.41523
G1 X81.492 Y86.973 E9.47152
G1 X79.717 Y87.370 E9.52780
G1 X77.950 Y87.804 E9.58408
G1 X76.193 Y88.274 E9.64036
G1 X74.446 Y88.782 E9.69664
G1 X72.711 Y89.326 E9.75292
G1 X71.047 Y89.886 E9.80723
G1 X69.275 Y90.522 E9.86548
G1 X67.577 Y91.174 E9.92176
G1 X65.893 Y91.861 E9.97804
G1 X64.224 Y92.584 E10.03432
G1 X62.570 Y93.341 E10.09060
G1 X60.932 Y94.132 E10.14688
G1 X59.312 Y94.958 E10.20316
G1 X57.709 Y95.818 E10.25945
G1 X56.124 Y96.711 E10.31573
G1 X54.558 Y97.637 E10.37201
G1 X53.012 Y98.595 E10.42829
G1 X51.487 Y99.586 E10.48457
G1 X49.982 Y100.608 E10.54085
G1 X48.500 Y101.662 E10.59713
G1 X47.039 Y102.746 E10.65341
G1 X45.602 Y103.861 E10.70969
G1 X44.189 Y105.006 E10.76597
G1 X42.799 Y106.180 E10.82225
G1 X41.435 Y107.383 E10.87853
G1 X40.096 Y108.614 E10.93481
G1 X38.783 Y109.873 E10.99109
G1 X37.497 Y111.159 E11.04738
G1 X36.238 Y112.472 E11.10366
G1 X35.007 Y113.811 E11.15994
G1 X33.804 Y115.175 E11.21622
G1 X32.630 Y116.565 E11.27250
G1 X31.795 Y117.595 E11.31352
G1 X31.060 Y116.910 E11.34460
G1 X30.193 Y117.040 E11.37173
G1 X21.947 Y95.918 E12.07330
G1 X22.248 Y95.714 E12.08456
G1 X22.355 Y94.319 E12.12783
G1 X21.083 Y93.135 E12.18159
G1 X22.057 Y91.701 E12.23523
G1 X23.218 Y90.068 E12.29723
G1 X24.396 Y88.481 E12.35838
G1 X25.607 Y86.920 E12.41952
G1 X26.851 Y85.384 E12.48066
G1 X28.126 Y83.875 E12.54180
G1 X29.433 Y82.393 E12.60294
G1 X30.771 Y80.938 E12.66408
G1 X32.138 Y79.512 E12.72522
G1 X33.536 Y78.115 E12.78636
G1 X34.962 Y76.747 E12.84750
G1 X36.416 Y75.409 E12.90864
G1 X37.899 Y74.103 E12.96978
G1 X39.408 Y72.827 E13.03092
G1 X40.944 Y71.584 E13.09207
G1 X42.505 Y70.372 E13.15321
G1 X44.091 Y69.194 E13.21435
G1 X45.653 Y68.084 E13.27363
G1 X45.702 Y68.050 F6000.000
G1 E12.27363 F1800.00000
G92 E0
G1 X46.595 Y66.676 F6000.000
G1 X99.549 Y50.278 F6000.000
G1 X99.274 Y47.272 F6000.000
G1 E1.00000 F1800.00000
G1 F900
G1 X99.274 Y43.500 E1.11673
G1 X99.824 Y43.500 E1.13375
G1 X99.824 Y50.554 E1.35202
G1 X99.274 Y50.553 E1.36904
G1 X99.274 Y47.332 E1.46869
G1 E0.46869 F1800.00000
G92 E0
G1 X99.549 Y50.278 F6000.000
G1 X20.057 Y94.869 F6000.000
G1 E1.00000 F1800.00000
G1 F900
G1 X19.919 Y94.827 E1.00444
G1 X20.352 Y94.161 E1.02900
G1 X21.063 Y94.824 E1.05907
G1 X21.048 Y95.018 E1.06509
G1 X20.887 Y95.127 E1.07111
G1 X20.114 Y94.887 E1.09616
G1 X19.929 Y95.484 F6000.000
G1 F900
G1 X18.960 Y95.183 E1.12755
G1 X20.233 Y93.197 E1.20055
G1 X21.709 Y94.571 E1.26295
G1 X21.648 Y95.366 E1.28760
G1 X20.989 Y95.813 E1.31224
G1 X19.986 Y95.502 E1.34475
G1 E0.34475 F1800.00000
G92 E0
G1 X20.916 Y95.323 F6000.000
G1 X7.842 Y108.245 F6000.000
G1 X8.340 Y106.564 F6000.000
G1 E1.00000 F1800.00000
G1 F900
G1 X9.630 Y103.863 E1.09260
G1 X7.826 Y103.001 E1.15448
G1 X8.063 Y102.505 E1.17151
G1 X13.587 Y105.144 E1.36092
G1 X13.358 Y105.645 E1.37795
G1 X10.127 Y104.101 E1.48876
G1 X7.971 Y108.612 E1.64347
G1 X7.475 Y108.375 E1.66049
G1 X8.314 Y106.618 E1.72074
G1 E0.72074 F1800.00000
G92 E0
G1 X7.842 Y108.245 F6000.000
G1 X12.543 Y107.618 F6000.000
G1 X12.711 Y107.919 F6000.000
G1 E1.00000 F1800.00000
G1 F900
G1 X12.777 Y107.897 E1.00215
G1 X13.052 Y108.275 E1.01660
G1 X12.848 Y108.556 E1.02733
G1 X12.518 Y108.448 E1.03805
G1 X12.518 Y107.981 E1.05250
G1 X12.654 Y107.937 E1.05693
G1 E0.05693 F1800.00000
G92 E0
G1 X12.543 Y107.618 F6000.000
G1 X30.582 Y118.450 F6000.000
G1 X30.366 Y118.420 F6000.000
G1 E1.00000 F1800.00000
G1 F900
G1 X30.456 Y118.264 E1.00557
G1 X30.649 Y118.235 E1.01159
G1 X30.877 Y118.447 E1.02122
G1 X30.727 Y118.706 E1.03047
G1 X30.430 Y118.614 E1.04010
G1 X30.375 Y118.475 E1.04473
G1 X29.793 Y118.702 F6000.000
G1 F900
G1 X29.667 Y118.379 E1.05544
G1 X29.861 Y118.045 E1.06739
G1 X29.741 Y117.739 E1.07757
G1 X30.855 Y117.573 E1.11240
G1 X31.899 Y118.546 E1.15656
G1 X31.163 Y119.496 E1.19376
G1 X29.957 Y119.121 E1.23282
G1 X29.815 Y118.758 E1.24490
G1 E0.24490 F1800.00000
G92 E0
G1 X29.976 Y119.101 F6000.000
G1 X14.421 Y148.525 F6000.000
G1 X14.021 Y147.272 F6000.000
G1 E1.00000 F1800.00000
G1 F900
G1 X14.021 Y145.125 E1.06645
G1 X14.219 Y145.125 E1.07258
G1 X14.219 Y143.428 E1.12509
G1 X14.371 Y143.306 E1.13111
G1 X14.561 Y143.350 E1.13714
G1 X14.821 Y143.890 E1.15570
G1 X14.821 Y149.125 E1.31767
G1 X19.821 Y149.125 E1.47238
G1 X19.821 Y149.925 E1.49714
G1 X14.821 Y149.925 E1.65185
G1 X14.821 Y155.160 E1.81382
G1 X14.561 Y155.701 E1.83238
G1 X14.371 Y155.744 E1.83840
G1 X14.219 Y155.622 E1.84443
G1 X14.219 Y153.925 E1.89694
G1 X14.021 Y153.925 E1.90307
G1 X14.021 Y147.332 E2.10706
G1 X13.396 Y147.332 F6000.000
G1 F900
G1 X13.396 Y144.500 E2.19470
G1 X13.594 Y144.500 E2.20083
G1 X13.594 Y143.127 E2.24332
G1 X14.217 Y142.630 E2.26797
G1 X14.993 Y142.807 E2.29261
G1 X15.446 Y143.748 E2.32490
G1 X15.446 Y148.500 E2.47195
G1 X20.446 Y148.500 E2.62665
G1 X20.446 Y150.550 E2.69009
G1 X15.446 Y150.550 E2.84480
G1 X15.446 Y155.303 E2.99184
G1 X14.993 Y156.243 E3.02413
G1 X14.217 Y156.420 E3.04878
G1 X13.594 Y155.923 E3.07343
G1 X13.594 Y154.550 E3.11591
G1 X13.396 Y154.550 E3.12204
G1 X13.396 Y147.392 E3.34351
G1 E2.34351 F1800.00000
G92 E0
G1 X14.421 Y148.525 F6000.000
G1 X168.308 Y118.570 F6000.000
G1 X168.323 Y118.905 F6000.000
G1 E1.00000 F1800.00000
G1 F900
G1 X168.291 Y118.935 E1.00136
G1 X167.899 Y118.429 E1.02115
G1 X168.697 Y118.181 E1.04702
G1 X168.724 Y118.531 E1.05788
G1 X168.367 Y118.864 E1.07299
G1 X168.793 Y119.321 F6000.000
G1 F900
G1 X168.216 Y119.858 E1.09736
G1 X166.844 Y118.102 E1.16630
G1 X169.541 Y117.265 E1.25368
G1 X169.301 Y117.881 E1.27413
G1 X169.370 Y118.783 E1.30215
G1 X168.837 Y119.280 E1.32471
G1 E0.32471 F1800.00000
G92 E0
G1 X169.344 Y118.773 F6000.000
G1 X186.424 Y107.679 F6000.000
G1 X186.398 Y107.552 F6000.000
G1 E1.00000 F1800.00000
G1 F900
G1 X186.397 Y107.225 E1.01012
G1 X186.656 Y107.140 E1.01857
G1 X186.936 Y107.525 E1.03328
G1 X186.732 Y107.806 E1.04401
G1 X186.399 Y107.697 E1.05485
G1 X186.399 Y107.612 E1.05748
G1 E0.05748 F1800.00000
G92 E0
G1 X187.247 Y104.314 F6000.000
G1 E1.00000 F1800.00000
G1 F900
G1 X192.388 Y101.858 E1.17629
G1 X192.625 Y102.354 E1.19331
G1 X189.467 Y103.863 E1.30160
G1 X192.270 Y109.728 E1.50272
G1 X191.773 Y109.965 E1.51975
G1 X188.971 Y104.101 E1.72086
G1 X185.740 Y105.644 E1.83165
G1 X185.511 Y105.144 E1.84868
G1 X187.193 Y104.340 E1.90636
G1 E0.90636 F1800.00000
G92 E0
G1 X185.858 Y105.283 F6000.000
G1 X178.244 Y94.905 F6000.000
G1 X178.402 Y94.673 F6000.000
G1 E1.00000 F1800.00000
G1 F900
G1 X178.538 Y94.907 E1.00839
G1 X178.310 Y95.120 E1.01802
G1 X178.118 Y95.091 E1.02405
G1 X178.020 Y94.922 E1.03007
G1 X178.091 Y94.741 E1.03610
G1 X178.357 Y94.658 E1.04473
G1 X178.172 Y94.062 F6000.000
G1 F900
G1 X179.216 Y93.738 E1.07854
G1 X179.779 Y94.605 E1.11056
G1 X178.516 Y95.782 E1.16398
G1 X177.728 Y95.665 E1.18863
G1 X177.329 Y94.976 E1.21328
G1 X177.618 Y94.234 E1.23792
G1 X178.115 Y94.079 E1.25401
G1 E0.25401 F1800.00000
G92 E0
G1 X177.637 Y94.254 F6000.000
G1 X184.677 Y148.525 F6000.000
G1 X184.277 Y148.256 F6000.000
G1 E1.00000 F1800.00000
G1 F900
G1 X184.277 Y145.125 E1.09687
G1 X184.475 Y145.125 E1.10300
G1 X184.475 Y143.428 E1.15551
G1 X184.627 Y143.306 E1.16154
G1 X184.817 Y143.350 E1.16756
G1 X185.077 Y143.890 E1.18612
G1 X185.077 Y155.160 E1.53483
G1 X184.817 Y155.701 E1.55339
G1 X184.627 Y155.744 E1.55941
G1 X184.475 Y155.622 E1.56544
G1 X184.475 Y153.925 E1.61795
G1 X184.277 Y153.925 E1.62408
G1 X184.277 Y149.925 E1.74785
G1 X179.277 Y149.925 E1.90255
G1 X179.277 Y149.125 E1.92732
G1 X184.277 Y149.125 E2.08203
G1 X184.277 Y148.316 E2.10706
G1 X183.652 Y148.316 F6000.000
G1 F900
G1 X183.652 Y144.500 E2.22513
G1 X183.850 Y144.500 E2.23126
G1 X183.850 Y143.127 E2.27374
G1 X184.473 Y142.630 E2.29839
G1 X185.249 Y142.807 E2.32304
G1 X185.702 Y143.748 E2.35532
G1 X185.702 Y155.303 E2.71285
G1 X185.249 Y156.243 E2.74514
G1 X184.473 Y156.420 E2.76979
G1 X183.850 Y155.923 E2.79443
G1 X183.850 Y154.550 E2.83692
G1 X183.652 Y154.550 E2.84305
G1 X183.652 Y150.550 E2.96682
G1 X178.652 Y150.550 E3.12152
G1 X178.652 Y148.500 E3.18496
G1 X183.652 Y148.500 E3.33967
G1 X183.652 Y148.376 E3.34351
G1 X183.027 Y147.875 F6000.000
G1 F945
G1 X183.027 Y143.875 E3.46728
G1 X183.225 Y143.875 E3.47341
G1 X183.225 Y142.826 E3.50587
G1 X184.318 Y141.954 E3.54914
G1 X185.682 Y142.265 E3.59241
G1 X186.327 Y143.605 E3.63842
G1 X186.327 Y155.445 E4.00478
G1 X185.682 Y156.785 E4.05079
G1 X184.318 Y157.096 E4.09406
G1 X183.225 Y156.224 E4.13733
G1 X183.225 Y155.175 E4.16979
G1 X183.027 Y155.175 E4.17592
G1 X183.027 Y151.175 E4.29969
G1 X179.327 Y151.175 E4.41417
G1 X179.327 Y153.411 E4.48336
G1 X178.852 Y154.065 E4.50835
G1 X178.218 Y153.859 E4.52899
G1 X178.218 Y153.175 E4.55014
G1 X178.027 Y153.175 E4.55605
G1 X178.027 Y137.175 E5.05111
G1 X177.718 Y137.175 E5.06065
G1 X176.957 Y135.500 E5.11758
G1 X176.177 Y133.886 E5.17304
G1 X175.364 Y132.290 E5.22847
G1 X174.517 Y130.711 E5.28391
G1 X173.637 Y129.150 E5.33935
G1 X172.725 Y127.608 E5.39479
G1 X171.781 Y126.085 E5.45023
G1 X170.805 Y124.582 E5.50567
G1 X169.798 Y123.100 E5.56110
G1 X168.760 Y121.640 E5.61654
G1 X167.692 Y120.202 E5.67198
G1 X166.594 Y118.786 E5.72742
G1 X165.466 Y117.393 E5.78286
G1 X164.310 Y116.025 E5.83829
G1 X163.125 Y114.681 E5.89373
G1 X161.912 Y113.362 E5.94917
G1 X160.715 Y112.114 E6.00267
G1 X159.405 Y110.802 E6.06004
G1 X158.112 Y109.562 E6.11548
G1 X156.793 Y108.349 E6.17092
G1 X155.449 Y107.164 E6.22636
