; generated by Slic3r 1.3.0 on 2020-04-06 at 15:13:04

; external perimeters extrusion width = 0.44mm (5.92mm^3/s)
; perimeters extrusion width = 0.48mm (9.42mm^3/s)
; infill extrusion width = 0.48mm (12.57mm^3/s)
; solid infill extrusion width = 0.48mm (12.57mm^3/s)
; top infill extrusion width = 0.48mm (12.57mm^3/s)

M190 S70 ; set bed temperature and wait for it to be reached
M104 S210 ; set temperature
; 8" i3 & i3v 3mm PLA for .40mm Hexagon 4-5-14
G1 Z5 F50 ; lift nozzle
G28 ; home all axes
; Filament gcode

M109 S210 ; set temperature and wait for it to be reached
G21 ; set units to millimeters
G90 ; use absolute coordinates
M82 ; use absolute distances for extrusion
G92 E0
M106 S89.25
G1 E-1.00000 F1800.00000
G92 E0
G1 Z0.350 F6000.000
G1 X41.095 Y61.176 F6000.000
G1 E1.00000 F1800.00000
G1 F900
G1 X42.815 Y60.009 E1.06432
G1 X44.501 Y58.914 E1.12653
G1 X46.327 Y57.780 E1.19304
G1 X48.177 Y56.684 E1.25955
G1 X50.048 Y55.628 E1.32604
G1 X51.942 Y54.611 E1.39255
G1 X53.980 Y53.572 E1.46334
G1 X55.916 Y52.638 E1.52984
G1 X57.871 Y51.745 E1.59635
G1 X59.844 Y50.892 E1.66286
G1 X61.732 Y50.122 E1.72594
G1 X95.822 Y36.381 E2.86320
G1 X98.299 Y35.900 E2.94126
G1 X100.799 Y35.900 E3.01862
G1 X103.276 Y36.381 E3.09668
G1 X139.253 Y50.892 E4.29702
G1 X141.227 Y51.745 E4.36353
G1 X143.182 Y52.638 E4.43004
G1 X145.241 Y53.634 E4.50083
G1 X147.156 Y54.611 E4.56733
G1 X149.110 Y55.662 E4.63600
G1 X150.921 Y56.684 E4.70032
G1 X152.652 Y57.708 E4.76254
G1 X154.479 Y58.839 E4.82905
G1 X156.283 Y60.009 E4.89556
G1 X158.175 Y61.295 E4.96635
G1 X159.926 Y62.541 E5.03284
G1 X161.651 Y63.823 E5.09935
G1 X163.348 Y65.142 E5.16586
G1 X165.018 Y66.496 E5.23236
G1 X166.658 Y67.884 E5.29887
G1 X168.219 Y69.261 E5.36326
G1 X198.089 Y96.167 E6.60714
G1 X199.633 Y98.233 E6.68694
G1 X199.997 Y98.995 E6.71308
G1 X200.635 Y102.209 E6.81444
G1 X200.185 Y110.545 E7.07275
G1 X200.119 Y111.183 E7.09262
G1 X193.226 Y156.521 E8.51154
G1 X192.646 Y158.399 E8.57238
G1 X191.893 Y159.963 E8.62608
G1 X190.555 Y161.826 E8.69704
G1 X188.662 Y163.121 E8.76800
G1 X187.398 Y163.548 E8.80928
G1 X185.706 Y163.934 E8.86298
G1 X184.232 Y164.100 E8.90889
G1 X13.976 Y164.100 E14.17682
G1 X11.717 Y163.703 E14.24779
G1 X9.845 Y162.655 E14.31416
G1 X8.488 Y161.572 E14.36787
G1 X6.970 Y159.854 E14.43883
G1 X6.160 Y157.867 E14.50520
G1 X5.962 Y156.999 E14.53274
G1 X5.865 Y156.481 E14.54906
G1 X-0.812 Y110.692 E15.98081
G1 X-0.878 Y109.526 E16.01695
G1 X-0.641 Y102.072 E16.24770
G1 X0.003 Y99.426 E16.33196
G1 X0.367 Y98.664 E16.35810
G1 X1.795 Y96.705 E16.43309
G1 X29.348 Y70.667 E17.60607
G1 X30.931 Y69.214 E17.67257
G1 X32.544 Y67.794 E17.73907
G1 X34.080 Y66.496 E17.80129
G1 X35.749 Y65.142 E17.86779
G1 X37.447 Y63.823 E17.93430
G1 X39.172 Y62.541 E18.00080
G1 X41.045 Y61.210 E18.07191
G1 E17.07191 F1800.00000
G92 E0
G1 X24.694 Y88.081 F6000.000
G1 E1.00000 F1800.00000
G1 F945
G1 X32.980 Y109.306 E1.70501
G1 X34.487 Y107.583 E1.77583
G1 X35.728 Y106.233 E1.83256
G1 X36.997 Y104.910 E1.88929
G1 X38.293 Y103.613 E1.94603
G1 X39.617 Y102.344 E2.00276
G1 X40.966 Y101.103 E2.05950
G1 X42.342 Y99.890 E2.11623
G1 X43.742 Y98.707 E2.17297
G1 X45.167 Y97.553 E2.22970
G1 X46.616 Y96.429 E2.28644
G1 X48.088 Y95.336 E2.34317
G1 X49.583 Y94.273 E2.39990
G1 X51.099 Y93.243 E2.45664
G1 X52.637 Y92.244 E2.51337
G1 X54.196 Y91.278 E2.57011
G1 X55.774 Y90.345 E2.62684
G1 X57.371 Y89.444 E2.68358
G1 X58.987 Y88.578 E2.74031
G1 X60.621 Y87.745 E2.79704
G1 X62.272 Y86.947 E2.85378
G1 X63.939 Y86.184 E2.91051
G1 X65.622 Y85.456 E2.96725
G1 X67.320 Y84.763 E3.02398
G1 X69.031 Y84.106 E3.08072
G1 X70.757 Y83.485 E3.13745
G1 X72.494 Y82.900 E3.19418
G1 X74.244 Y82.352 E3.25092
G1 X76.005 Y81.840 E3.30765
G1 X77.776 Y81.366 E3.36439
G1 X79.557 Y80.928 E3.42112
G1 X81.346 Y80.528 E3.47786
G1 X83.144 Y80.166 E3.53459
G1 X84.948 Y79.841 E3.59133
G1 X86.759 Y79.554 E3.64806
G1 X88.576 Y79.305 E3.70479
G1 X90.397 Y79.095 E3.76153
G1 X92.223 Y78.922 E3.81826
G1 X94.052 Y78.788 E3.87500
G1 X95.883 Y78.692 E3.93173
G1 X97.715 Y78.634 E3.98846
G1 X99.229 Y78.618 E4.03529
G1 X101.382 Y78.634 E4.10191
G1 X103.215 Y78.692 E4.15867
G1 X105.046 Y78.788 E4.21540
G1 X106.875 Y78.922 E4.27213
G1 X108.700 Y79.095 E4.32887
G1 X110.522 Y79.305 E4.38560
G1 X112.338 Y79.554 E4.44234
G1 X114.149 Y79.841 E4.49907
G1 X115.954 Y80.166 E4.55580
G1 X117.752 Y80.528 E4.61254
G1 X119.541 Y80.928 E4.66927
G1 X121.322 Y81.366 E4.72601
G1 X123.093 Y81.840 E4.78274
G1 X124.854 Y82.352 E4.83948
G1 X126.603 Y82.900 E4.89621
G1 X128.341 Y83.485 E4.95295
G1 X130.066 Y84.106 E5.00968
G1 X131.778 Y84.763 E5.06642
G1 X133.476 Y85.456 E5.12315
G1 X135.159 Y86.184 E5.17988
G1 X136.826 Y86.947 E5.23662
G1 X138.477 Y87.745 E5.29335
G1 X140.110 Y88.578 E5.35008
G1 X141.726 Y89.444 E5.40682
G1 X143.324 Y90.345 E5.46355
G1 X144.902 Y91.278 E5.52029
G1 X146.461 Y92.244 E5.57702
G1 X147.998 Y93.243 E5.63376
G1 X149.515 Y94.273 E5.69049
G1 X151.009 Y95.336 E5.74723
G1 X152.481 Y96.429 E5.80396
G1 X153.930 Y97.553 E5.86069
G1 X155.355 Y98.707 E5.91743
G1 X156.756 Y99.890 E5.97416
G1 X158.131 Y101.103 E6.03090
G1 X159.481 Y102.344 E6.08765
G1 X161.031 Y103.839 E6.15427
G1 X162.101 Y104.910 E6.20110
G1 X163.370 Y106.233 E6.25783
G1 X164.611 Y107.583 E6.31457
G1 X166.118 Y109.306 E6.38539
G1 X174.404 Y88.081 E7.09039
G1 X175.880 Y90.068 E7.16697
G1 X177.024 Y91.678 E7.22811
G1 X178.195 Y93.400 E7.29253
G1 X177.146 Y93.726 E7.32651
G1 X176.637 Y95.029 E7.36978
G1 X177.151 Y95.916 E7.40152
G1 X168.847 Y117.189 E8.10810
G1 X167.821 Y116.492 E8.14646
G1 X166.697 Y116.841 E8.18287
G1 X165.294 Y115.175 E8.25026
G1 X164.091 Y113.811 E8.30654
G1 X162.860 Y112.472 E8.36281
G1 X161.601 Y111.159 E8.41909
G1 X160.315 Y109.873 E8.47538
G1 X159.002 Y108.614 E8.53166
G1 X157.663 Y107.383 E8.58794
G1 X156.346 Y106.222 E8.64224
G1 X154.909 Y105.006 E8.70050
G1 X153.496 Y103.861 E8.75678
G1 X152.058 Y102.746 E8.81306
G1 X150.598 Y101.662 E8.86934
G1 X149.115 Y100.608 E8.92562
G1 X147.611 Y99.586 E8.98190
G1 X146.085 Y98.595 E9.03818
G1 X144.540 Y97.637 E9.09446
G1 X142.974 Y96.711 E9.15074
G1 X141.389 Y95.818 E9.20702
G1 X139.786 Y94.958 E9.26331
G1 X138.165 Y94.132 E9.31959
G1 X136.528 Y93.341 E9.37586
G1 X134.874 Y92.584 E9.43215
G1 X133.205 Y91.861 E9.48843
G1 X131.520 Y91.174 E9.54471
G1 X129.822 Y90.522 E9.60099
G1 X128.111 Y89.906 E9.65727
G1 X126.387 Y89.326 E9.71355
G1 X124.651 Y88.782 E9.76983
G1 X122.905 Y88.274 E9.82611
G1 X121.148 Y87.804 E9.88239
G1 X119.381 Y87.370 E9.93867
G1 X117.668 Y86.987 E9.99298
G1 X115.823 Y86.613 E10.05124
G1 X114.033 Y86.291 E10.10752
G1 X112.236 Y86.007 E10.16380
G1 X110.434 Y85.760 E10.22007
G1 X108.627 Y85.551 E10.27636
G1 X106.816 Y85.380 E10.33264
G1 X105.002 Y85.246 E10.38892
G1 X103.186 Y85.151 E10.44520
G1 X101.368 Y85.094 E10.50148
G1 X99.549 Y85.075 E10.55776
G1 X97.743 Y85.094 E10.61362
G1 X95.912 Y85.151 E10.67032
G1 X94.095 Y85.246 E10.72660
G1 X92.281 Y85.380 E10.78288
G1 X90.471 Y85.551 E10.83916
G1 X88.664 Y85.760 E10.89544
G1 X86.862 Y86.007 E10.95172
G1 X85.065 Y86.291 E11.00800
G1 X83.275 Y86.613 E11.06428
G1 X81.492 Y86.973 E11.12057
G1 X79.717 Y87.370 E11.17685
G1 X77.950 Y87.804 E11.23313
G1 X76.193 Y88.274 E11.28941
G1 X74.446 Y88.782 E11.34569
G1 X72.711 Y89.326 E11.40197
G1 X70.987 Y89.906 E11.45825
G1 X69.335 Y90.501 E11.51256
G1 X67.577 Y91.174 E11.57082
G1 X65.893 Y91.861 E11.62709
G1 X64.224 Y92.584 E11.68337
G1 X62.570 Y93.341 E11.73965
G1 X60.932 Y94.132 E11.79593
G1 X59.312 Y94.958 E11.85221
G1 X57.709 Y95.818 E11.90850
G1 X56.124 Y96.711 E11.96478
G1 X54.558 Y97.637 E12.02106
G1 X53.012 Y98.595 E12.07734
G1 X51.487 Y99.586 E12.13362
G1 X49.982 Y100.608 E12.18990
G1 X48.500 Y101.662 E12.24618
G1 X47.039 Y102.746 E12.30246
G1 X45.602 Y103.861 E12.35874
G1 X44.189 Y105.006 E12.41502
G1 X42.799 Y106.180 E12.47130
G1 X41.435 Y107.383 E12.52758
G1 X40.096 Y108.614 E12.58386
G1 X38.783 Y109.873 E12.64014
G1 X37.497 Y111.159 E12.69643
G1 X36.238 Y112.472 E12.75271
G1 X35.007 Y113.811 E12.80899
G1 X33.804 Y115.175 E12.86524
G1 X32.075 Y117.240 E12.94858
G1 X31.526 Y116.729 E12.97180
G1 X30.152 Y116.933 E13.01480
G1 X21.947 Y95.918 E13.71283
G1 X22.248 Y95.714 E13.72409
G1 X22.355 Y94.319 E13.76736
G1 X21.083 Y93.135 E13.82113
G1 X22.057 Y91.701 E13.87477
G1 X23.218 Y90.068 E13.93677
G1 X24.658 Y88.129 E14.01148
G1 X24.694 Y88.081 F6000.000
G1 E13.01148 F1800.00000
G92 E0
G1 X24.890 Y86.797 F6000.000
G1 X37.448 Y88.927 F6000.000
G1 X42.293 Y84.649 F6000.000
G1 X47.409 Y80.790 F6000.000
G1 X53.802 Y76.670 F6000.000
G1 X59.964 Y73.371 F6000.000
G1 X64.613 Y71.283 F6000.000
G1 X69.997 Y69.221 F6000.000
G1 X75.953 Y67.402 F6000.000
G1 X84.293 Y65.554 F6000.000
G1 X89.357 Y64.846 F6000.000
G1 X93.562 Y64.461 F6000.000
G1 X99.475 Y64.238 F6000.000
G1 X103.499 Y64.346 F6000.000
G1 X110.618 Y64.943 F6000.000
G1 X116.089 Y65.792 F6000.000
G1 X121.091 Y66.870 F6000.000
G1 X127.218 Y68.608 F6000.000
G1 X134.484 Y71.283 F6000.000
G1 X139.134 Y73.371 F6000.000
G1 X145.296 Y76.670 F6000.000
G1 X151.162 Y80.405 F6000.000
G1 X156.126 Y84.121 F6000.000
G1 X161.649 Y88.927 F6000.000
G1 X163.873 Y97.923 F6000.000
G1 X165.893 Y108.095 F6000.000
G1 X165.705 Y106.926 F6000.000
G1 E1.00000 F1800.00000
G1 F1350
G1 X164.281 Y105.377 E1.06509
G1 X162.994 Y104.035 E1.12264
G1 X161.907 Y102.948 E1.17021
G1 X160.338 Y101.434 E1.23765
G1 X158.968 Y100.174 E1.29527
G1 X157.573 Y98.944 E1.35281
G1 X156.152 Y97.744 E1.41036
G1 X154.707 Y96.573 E1.46790
G1 X153.237 Y95.433 E1.52545
G1 X151.744 Y94.324 E1.58299
G1 X150.228 Y93.247 E1.64053
G1 X148.690 Y92.202 E1.69808
G1 X147.130 Y91.189 E1.75562
G1 X145.550 Y90.209 E1.81317
G1 X143.949 Y89.262 E1.87071
G1 X142.329 Y88.349 E1.92825
G1 X140.689 Y87.470 E1.98580
G1 X139.032 Y86.626 E2.04334
G1 X137.358 Y85.817 E2.10089
G1 X135.667 Y85.042 E2.15843
G1 X133.960 Y84.304 E2.21597
G1 X132.238 Y83.601 E2.27352
G1 X130.502 Y82.935 E2.33106
G1 X128.752 Y82.305 E2.38861
G1 X126.990 Y81.711 E2.44615
G1 X125.215 Y81.155 E2.50370
G1 X123.429 Y80.636 E2.56124
G1 X121.633 Y80.155 E2.61878
G1 X119.826 Y79.711 E2.67633
G1 X118.011 Y79.306 E2.73387
G1 X116.188 Y78.938 E2.79142
G1 X114.358 Y78.609 E2.84896
G1 X112.521 Y78.318 E2.90651
G1 X110.678 Y78.065 E2.96405
G1 X108.831 Y77.852 E3.02159
G1 X106.979 Y77.677 E3.07914
G1 X105.125 Y77.540 E3.13668
G1 X103.267 Y77.443 E3.19423
G1 X101.406 Y77.385 E3.25185
G1 X99.227 Y77.369 E3.31928
G1 X97.689 Y77.385 E3.36686
G1 X95.830 Y77.443 E3.42440
G1 X93.973 Y77.540 E3.48195
G1 X92.118 Y77.677 E3.53949
G1 X90.267 Y77.852 E3.59704
G1 X88.419 Y78.065 E3.65458
G1 X86.577 Y78.318 E3.71212
G1 X84.740 Y78.609 E3.76967
G1 X82.909 Y78.938 E3.82721
G1 X81.086 Y79.306 E3.88476
G1 X79.271 Y79.711 E3.94230
G1 X77.465 Y80.155 E3.99985
G1 X75.669 Y80.636 E4.05739
G1 X73.883 Y81.155 E4.11493
G1 X72.108 Y81.711 E4.17248
G1 X70.346 Y82.305 E4.23002
G1 X68.596 Y82.935 E4.28757
G1 X66.859 Y83.601 E4.34511
G1 X65.137 Y84.304 E4.40266
G1 X63.431 Y85.042 E4.46020
G1 X61.740 Y85.817 E4.51774
G1 X60.065 Y86.626 E4.57529
G1 X58.408 Y87.470 E4.63283
G1 X56.769 Y88.349 E4.69038
G1 X55.149 Y89.262 E4.74792
G1 X53.548 Y90.209 E4.80546
G1 X51.967 Y91.189 E4.86301
G1 X50.408 Y92.202 E4.92055
G1 X48.870 Y93.247 E4.97810
G1 X47.354 Y94.324 E5.03564
G1 X45.861 Y95.433 E5.09318
G1 X44.391 Y96.573 E5.15073
G1 X42.946 Y97.744 E5.20827
G1 X41.525 Y98.944 E5.26582
G1 X40.130 Y100.174 E5.32336
G1 X38.761 Y101.433 E5.38091
G1 X37.419 Y102.720 E5.43845
G1 X36.104 Y104.035 E5.49599
G1 X34.816 Y105.377 E5.55354
G1 X33.393 Y106.926 E5.61863
G1 X25.569 Y86.887 E6.28424
G1 X26.812 Y85.352 E6.34535
G1 X28.088 Y83.842 E6.40652
G1 X29.396 Y82.359 E6.46770
G1 X30.734 Y80.904 E6.52887
G1 X32.103 Y79.477 E6.59004
G1 X33.501 Y78.079 E6.65122
G1 X34.928 Y76.710 E6.71239
G1 X36.383 Y75.372 E6.77356
G1 X37.866 Y74.065 E6.83474
G1 X39.376 Y72.788 E6.89591
G1 X40.912 Y71.544 E6.95708
G1 X42.475 Y70.332 E7.01826
G1 X44.062 Y69.154 E7.07943
G1 X45.673 Y68.008 E7.14060
G1 X47.309 Y66.897 E7.20178
G1 X48.967 Y65.820 E7.26295
G1 X50.647 Y64.779 E7.32412
G1 X52.349 Y63.772 E7.38530
G1 X54.071 Y62.802 E7.44647
G1 X55.814 Y61.867 E7.50764
G1 X57.575 Y60.970 E7.56882
G1 X59.355 Y60.109 E7.62999
G1 X61.153 Y59.286 E7.69116
G1 X62.967 Y58.501 E7.75234
G1 X64.798 Y57.754 E7.81351
G1 X66.644 Y57.045 E7.87468
G1 X68.504 Y56.376 E7.93586
G1 X70.378 Y55.745 E7.99703
G1 X72.264 Y55.154 E8.05820
G1 X74.163 Y54.602 E8.11938
G1 X76.073 Y54.091 E8.18055
G1 X77.992 Y53.619 E8.24172
G1 X79.922 Y53.188 E8.30290
G1 X81.860 Y52.797 E8.36407
G1 X83.806 Y52.447 E8.42524
G1 X85.759 Y52.138 E8.48642
G1 X87.717 Y51.869 E8.54759
G1 X89.681 Y51.642 E8.60876
G1 X91.650 Y51.456 E8.66994
G1 X93.621 Y51.311 E8.73111
G1 X95.591 Y51.208 E8.79214
G1 X99.549 Y51.106 E8.91464
G1 X103.507 Y51.208 E9.03713
G1 X105.476 Y51.311 E9.09816
G1 X107.448 Y51.456 E9.15934
G1 X109.416 Y51.642 E9.22051
G1 X111.380 Y51.869 E9.28168
G1 X113.339 Y52.138 E9.34286
G1 X115.292 Y52.447 E9.40403
G1 X117.238 Y52.797 E9.46520
G1 X119.176 Y53.188 E9.52638
G1 X121.105 Y53.619 E9.58755
G1 X123.025 Y54.091 E9.64872
G1 X124.935 Y54.602 E9.70990
G1 X126.834 Y55.154 E9.77107
G1 X128.720 Y55.745 E9.83224
G1 X130.594 Y56.376 E9.89342
G1 X132.454 Y57.045 E9.95459
G1 X134.299 Y57.754 E10.01575
G1 X136.194 Y58.529 E10.07910
G1 X137.945 Y59.286 E10.13811
G1 X139.742 Y60.109 E10.19926
G1 X141.585 Y61.001 E10.26262
G1 X143.284 Y61.867 E10.32163
G1 X145.027 Y62.802 E10.38280
G1 X146.749 Y63.772 E10.44398
G1 X148.451 Y64.779 E10.50515
G1 X150.131 Y65.820 E10.56632
G1 X151.789 Y66.897 E10.62750
G1 X153.424 Y68.008 E10.68867
G1 X155.036 Y69.154 E10.74984
G1 X156.623 Y70.332 E10.81101
G1 X158.185 Y71.544 E10.87219
G1 X159.722 Y72.788 E10.93336
G1 X161.232 Y74.065 E10.99454
G1 X162.715 Y75.372 E11.05571
G1 X164.170 Y76.710 E11.11688
G1 X165.597 Y78.079 E11.17806
G1 X166.995 Y79.477 E11.23923
G1 X168.364 Y80.904 E11.30040
G1 X169.702 Y82.359 E11.36158
G1 X171.009 Y83.842 E11.42275
G1 X172.285 Y85.352 E11.48392
G1 X173.528 Y86.887 E11.54504
G1 X165.727 Y106.870 E12.20878
G1 X166.309 Y107.097 F6000.000
G1 F1350
G1 X165.912 Y108.114 E12.24254
G1 X165.076 Y107.164 E12.28169
G1 X163.826 Y105.805 E12.33882
G1 X162.547 Y104.472 E12.39596
G1 X161.469 Y103.394 E12.44317
G1 X159.910 Y101.889 E12.51019
G1 X158.549 Y100.638 E12.56738
G1 X157.164 Y99.417 E12.62452
G1 X155.754 Y98.225 E12.68166
G1 X154.319 Y97.063 E12.73880
G1 X152.859 Y95.931 E12.79594
G1 X151.377 Y94.830 E12.85307
G1 X149.871 Y93.760 E12.91022
G1 X148.344 Y92.722 E12.96735
G1 X146.795 Y91.716 E13.02449
G1 X145.226 Y90.743 E13.08163
G1 X143.636 Y89.803 E13.13877
G1 X142.027 Y88.897 E13.19591
G1 X140.400 Y88.024 E13.25305
G1 X138.755 Y87.186 E13.31019
G1 X137.092 Y86.382 E13.36733
G1 X135.413 Y85.613 E13.42447
G1 X133.718 Y84.880 E13.48161
G1 X132.008 Y84.182 E13.53875
G1 X130.284 Y83.520 E13.59589
G1 X128.547 Y82.895 E13.65302
G1 X126.796 Y82.306 E13.71016
G1 X125.034 Y81.753 E13.76730
G1 X123.261 Y81.238 E13.82444
G1 X121.477 Y80.760 E13.88158
G1 X119.684 Y80.320 E13.93872
G1 X117.881 Y79.917 E13.99586
G1 X116.071 Y79.552 E14.05300
G1 X114.254 Y79.225 E14.11014
G1 X112.430 Y78.936 E14.16728
G1 X110.600 Y78.685 E14.22442
G1 X108.766 Y78.473 E14.28156
G1 X106.927 Y78.299 E14.33870
G1 X105.085 Y78.164 E14.39584
G1 X103.241 Y78.067 E14.45297
G1 X101.394 Y78.009 E14.51016
G1 X99.228 Y77.993 E14.57719
G1 X97.702 Y78.009 E14.62439
G1 X95.856 Y78.067 E14.68153
G1 X94.012 Y78.164 E14.73867
G1 X92.171 Y78.299 E14.79581
G1 X90.332 Y78.473 E14.85295
G1 X88.498 Y78.685 E14.91009
G1 X86.668 Y78.936 E14.96722
G1 X84.844 Y79.225 E15.02436
G1 X83.027 Y79.552 E15.08150
G1 X81.216 Y79.917 E15.13864
G1 X79.414 Y80.320 E15.19578
G1 X77.621 Y80.760 E15.25292
G1 X75.837 Y81.238 E15.31006
G1 X74.063 Y81.753 E15.36720
G1 X72.301 Y82.306 E15.42434
G1 X70.551 Y82.895 E15.48148
G1 X68.814 Y83.520 E15.53862
G1 X67.089 Y84.182 E15.59576
G1 X65.380 Y84.880 E15.65290
G1 X63.685 Y85.613 E15.71004
G1 X62.006 Y86.382 E15.76718
G1 X60.343 Y87.186 E15.82431
G1 X58.698 Y88.024 E15.88145
G1 X57.070 Y88.897 E15.93859
G1 X55.461 Y89.803 E15.99573
